packages/tokens/icons/cloud/size32Px.svg

<svg viewBox="0 0 32 32" fill="none" xmlns="http://www.w3.org/2000/svg" width="1em" height="1em"><path d="M24.8333 13.83C24.8327 14.0859 25.0254 14.3009 25.2799 14.3283C27.6653 14.5844 29.5 16.5446 29.5 18.9C29.5 21.33 27.8993 23.5 25.3333 23.5L5.5 23.5C3.82938 23.5 2.5 22.1881 2.5 20.6C2.5 19.0001 3.91775 17.6482 5.60044 17.7016C5.84308 17.7093 6.05619 17.5416 6.10577 17.3039C6.60589 14.9065 8.87823 13.1272 11.4221 13.1674C11.6684 13.1713 11.8808 12.9952 11.9227 12.7525C12.4353 9.78201 15.1015 7.5 18.3333 7.5C21.9027 7.5 24.8411 10.4006 24.8333 13.83Z" stroke="currentColor" stroke-linejoin="round"/></svg>

<svg xmlns="http://www.w3.org/2000/svg" fill="none" viewBox="0 0 32 32" width="1em" height="1em"><path stroke="currentColor" stroke-linejoin="round" d="M24.833 13.83a.5.5 0 0 0 .447.498c2.385.256 4.22 2.217 4.22 4.572 0 2.43-1.6 4.6-4.167 4.6H5.5c-1.67 0-3-1.312-3-2.9 0-1.6 1.418-2.952 3.1-2.898a.5.5 0 0 0 .506-.398c.5-2.397 2.772-4.177 5.316-4.137a.5.5 0 0 0 .5-.415c.513-2.97 3.18-5.252 6.411-5.252 3.57 0 6.508 2.9 6.5 6.33Z"/></svg>
